assets/icons/regbi.svg

<svg width="100" height="100" viewBox="0 0 100 100" fill="none" xmlns="http://www.w3.org/2000/svg">
<circle cx="50" cy="50" r="49" stroke="url(#paint0_linear_271_274)" stroke-width="2"/>
<g clip-path="url(#clip0_271_274)">
<path d="M29.3759 73.8314C29.9131 73.8314 30.4593 73.7015 30.9647 73.427L44.8277 65.9112C45.4148 65.593 45.893 65.1061 46.2007 64.5134C46.5084 63.9207 46.6314 63.2494 46.5538 62.5861L45.6663 55.001L54.9781 63.7693L50.9407 68.2568C49.7064 69.6284 49.8174 71.7399 51.1886 72.9745C51.8013 73.527 52.5973 73.8324 53.4223 73.8314C54.3367 73.8314 55.2461 73.4583 55.9063 72.7259L61.9193 66.045C63.0475 64.7925 63.0645 62.8948 61.9599 61.622L52.0083 50.1481L62.092 49.3183L68.7293 72.0744C69.0691 73.2422 70.1357 74.0001 71.2933 74.0001C71.5412 74.0001 71.7932 73.9653 72.0436 73.892C73.4608 73.4793 74.2734 71.9966 73.8605 70.5785L66.8453 46.5278C66.6812 45.9642 66.3438 45.5023 65.9123 45.1696L61.7302 40.2567L61.7154 40.1129L61.671 40.0608C62.8528 41.1173 64.4078 41.7646 66.1166 41.7646C69.8065 41.7646 72.7981 38.7737 72.7981 35.0835C72.7981 31.3937 69.8065 28.4028 66.1166 28.4028C62.4267 28.4028 59.4358 31.3937 59.4358 35.0835C59.4358 36.4037 59.8229 37.6313 60.4838 38.6668L57.5651 35.239L57.1305 34.7287L55.8398 33.213L55.7715 33.2589H55.7706C55.7661 33.2558 55.7598 33.2534 55.755 33.2504C55.6392 33.1699 55.5187 33.0957 55.3865 33.0353L40.4187 26.2134C40.1104 26.0725 39.7753 25.9998 39.4363 26C39.0775 26 38.7183 26.082 38.388 26.244C38.0732 26.3996 37.7968 26.6233 37.579 26.8988C37.3612 27.1743 37.2073 27.4948 37.1285 27.837C37.0211 28.3038 34.5356 39.3222 37.2302 46.0924C37.2327 46.0987 37.2349 46.1052 37.2376 46.1115C37.5353 46.8566 38.1706 47.3604 38.8967 47.5318C39.0733 47.573 39.2533 47.6011 39.4371 47.6011C39.7302 47.6011 40.0279 47.5463 40.316 47.4315C41.53 46.946 42.1217 45.5669 41.6354 44.3528C41.5837 44.2238 41.539 44.0854 41.4918 43.95C41.3961 43.6735 41.3117 43.3933 41.2388 43.1099C41.1095 42.5975 41.008 42.0784 40.9348 41.555C40.4558 41.0218 40.0535 40.4245 39.7395 39.7802C38.4571 37.1526 38.7646 34.0715 40.5423 31.7391L40.784 31.4207L41.184 31.4253C43.6384 31.453 45.8621 32.6265 47.2766 34.5454L51.2093 36.3375L51.2148 36.3399L50.8284 36.6011L50.4421 36.8624L50.4379 36.8604L48.7103 38.034C48.9973 40.038 48.4922 42.1012 47.2144 43.7787L46.9727 44.0974L46.5727 44.0928C44.8977 44.0734 43.335 43.5113 42.0549 42.5554L41.9418 42.6325C42.058 43.1374 42.1984 43.6182 42.3741 44.0567C42.3784 44.0671 42.3792 44.0773 42.3831 44.0871C42.5511 44.5193 42.6116 44.9653 42.5868 45.4013C42.5335 46.3514 42.055 47.2421 41.2636 47.8041C41.063 47.9467 40.8487 48.0751 40.6109 48.1695C40.2375 48.3194 39.8389 48.3965 39.4365 48.3965C39.3604 48.3965 39.286 48.3844 39.2114 48.3799C38.2163 48.3099 37.3331 47.7859 36.7966 46.9659C36.7367 47.1934 36.7154 47.4266 36.7426 47.6634L39.653 61.1167L27.7801 67.5541C26.1587 68.4341 25.5565 70.4611 26.4354 72.0829C27.0408 73.2 28.1894 73.8314 29.3759 73.8314Z" fill="url(#paint1_linear_271_274)"/>
<path d="M46.5836 43.2954C47.613 41.9446 48.1035 40.2466 47.964 38.542C47.8963 37.7117 47.6911 36.8806 47.3043 36.0867C47.151 35.7752 46.9748 35.4756 46.7771 35.1902C46.6115 34.9511 46.4308 34.7227 46.2363 34.5064C45.9386 34.1744 45.6057 33.8851 45.2563 33.6216C44.4553 33.02 43.5331 32.5998 42.5536 32.3901C42.1022 32.293 41.6435 32.2253 41.177 32.2198C41.1685 32.2316 41.1619 32.2443 41.1526 32.2565C39.6439 34.2627 39.28 37.018 40.4568 39.4286C40.5512 39.6223 40.6659 39.798 40.7759 39.9787C40.9141 40.2068 41.0659 40.4264 41.2303 40.6364C41.3769 40.8241 41.5266 41.0077 41.6898 41.1763C42.0171 41.5161 42.3767 41.8138 42.7608 42.0758C43.8863 42.8456 45.2153 43.2803 46.5836 43.2954Z" fill="url(#paint2_linear_271_274)"/>
</g>
<defs>
<linearGradient id="paint0_linear_271_274" x1="0" y1="50.0041" x2="100" y2="50.0041" gradientUnits="userSpaceOnUse">
<stop stop-color="#E4F0FF"/>
<stop offset="0.35" stop-color="#E2EEFC"/>
<stop offset="0.5" stop-color="#DBE7F5"/>
<stop offset="0.61" stop-color="#D1DBE9"/>
<stop offset="0.7" stop-color="#C1CBD7"/>
<stop offset="0.78" stop-color="#ADB5C0"/>
<stop offset="0.85" stop-color="#949AA4"/>
<stop offset="0.92" stop-color="#767A82"/>
<stop offset="0.98" stop-color="#55575C"/>
<stop offset="1" stop-color="#48494D"/>
</linearGradient>
<linearGradient id="paint1_linear_271_274" x1="26.0312" y1="50.002" x2="73.968" y2="50.002" gradientUnits="userSpaceOnUse">
<stop stop-color="#E4F0FF"/>
<stop offset="0.35" stop-color="#E2EEFC"/>
<stop offset="0.5" stop-color="#DBE7F5"/>
<stop offset="0.61" stop-color="#D1DBE9"/>
<stop offset="0.7" stop-color="#C1CBD7"/>
<stop offset="0.78" stop-color="#ADB5C0"/>
<stop offset="0.85" stop-color="#949AA4"/>
<stop offset="0.92" stop-color="#767A82"/>
<stop offset="0.98" stop-color="#55575C"/>
<stop offset="1" stop-color="#48494D"/>
</linearGradient>
<linearGradient id="paint2_linear_271_274" x1="39.7588" y1="37.7581" x2="47.9873" y2="37.7581" gradientUnits="userSpaceOnUse">
<stop stop-color="#E4F0FF"/>
<stop offset="0.35" stop-color="#E2EEFC"/>
<stop offset="0.5" stop-color="#DBE7F5"/>
<stop offset="0.61" stop-color="#D1DBE9"/>
<stop offset="0.7" stop-color="#C1CBD7"/>
<stop offset="0.78" stop-color="#ADB5C0"/>
<stop offset="0.85" stop-color="#949AA4"/>
<stop offset="0.92" stop-color="#767A82"/>
<stop offset="0.98" stop-color="#55575C"/>
<stop offset="1" stop-color="#48494D"/>
</linearGradient>
<clipPath id="clip0_271_274">
<rect width="48" height="48" fill="white" transform="translate(26 26)"/>
</clipPath>
</defs>
</svg>

<svg xmlns="http://www.w3.org/2000/svg" width="100" height="100" fill="none"><circle cx="50" cy="50" r="49" stroke="url(#a)" stroke-width="2"/><g clip-path="url(#b)"><path fill="url(#c)" d="M29.376 73.831c.537 0 1.083-.13 1.589-.404l13.863-7.516a3.34 3.34 0 0 0 1.726-3.325l-.888-7.585 9.312 8.768-4.037 4.488a3.34 3.34 0 1 0 4.965 4.469l6.013-6.681a3.34 3.34 0 0 0 .04-4.423l-9.95-11.474 10.083-.83 6.637 22.756a2.672 2.672 0 1 0 5.132-1.495l-7.016-24.051a2.643 2.643 0 0 0-.933-1.358l-4.182-4.913-.015-.144-.044-.052a6.648 6.648 0 0 0 4.446 1.704 6.681 6.681 0 1 0-6.681-6.681c0 1.32.387 2.547 1.048 3.583l-2.919-3.428-.434-.51-1.291-1.516-.069.046-.016-.009a2.373 2.373 0 0 0-.369-.215L40.42 26.213a2.36 2.36 0 0 0-2.031.031 2.37 2.37 0 0 0-1.26 1.593c-.107.467-2.592 11.485.102 18.255l.008.02a2.359 2.359 0 0 0 1.659 1.42c.176.041.356.07.54.07a2.37 2.37 0 0 0 2.198-3.25c-.051-.128-.096-.267-.143-.402-.096-.277-.18-.557-.253-.84-.13-.513-.231-1.032-.304-1.555a7.71 7.71 0 0 1-1.196-1.775 7.657 7.657 0 0 1 .803-8.04l.242-.32.4.005a7.644 7.644 0 0 1 6.093 3.12l3.932 1.792.006.003-.387.261-.386.261-.004-.002-1.728 1.174a7.656 7.656 0 0 1-1.496 5.745l-.241.318-.4-.004a7.677 7.677 0 0 1-4.518-1.538l-.113.078c.116.504.256.985.432 1.424.004.01.005.02.01.03.167.432.228.878.203 1.314a3.164 3.164 0 0 1-1.323 2.403c-.201.143-.415.271-.653.365-.373.15-.772.228-1.174.228-.077 0-.151-.013-.226-.017a3.134 3.134 0 0 1-2.414-1.414 1.88 1.88 0 0 0-.054.697l2.91 13.454-11.873 6.437a3.342 3.342 0 0 0 1.596 6.277Z"/><path fill="url(#d)" d="M46.584 43.295a6.916 6.916 0 0 0 1.38-4.753 6.842 6.842 0 0 0-.66-2.455 7.01 7.01 0 0 0-1.068-1.58 6.813 6.813 0 0 0-.98-.885 6.909 6.909 0 0 0-2.702-1.232 6.931 6.931 0 0 0-1.377-.17l-.024.037a6.89 6.89 0 0 0-.696 7.172c.094.193.209.369.319.55.138.228.29.447.454.657a6.7 6.7 0 0 0 .46.54c.327.34.687.638 1.07.9a6.918 6.918 0 0 0 3.824 1.22Z"/></g><defs><linearGradient id="a" x1="0" x2="100" y1="50.004" y2="50.004" gradientUnits="userSpaceOnUse"><stop stop-color="#E4F0FF"/><stop offset=".35" stop-color="#E2EEFC"/><stop offset=".5" stop-color="#DBE7F5"/><stop offset=".61" stop-color="#D1DBE9"/><stop offset=".7" stop-color="#C1CBD7"/><stop offset=".78" stop-color="#ADB5C0"/><stop offset=".85" stop-color="#949AA4"/><stop offset=".92" stop-color="#767A82"/><stop offset=".98" stop-color="#55575C"/><stop offset="1" stop-color="#48494D"/></linearGradient><linearGradient id="c" x1="26.031" x2="73.968" y1="50.002" y2="50.002" gradientUnits="userSpaceOnUse"><stop stop-color="#E4F0FF"/><stop offset=".35" stop-color="#E2EEFC"/><stop offset=".5" stop-color="#DBE7F5"/><stop offset=".61" stop-color="#D1DBE9"/><stop offset=".7" stop-color="#C1CBD7"/><stop offset=".78" stop-color="#ADB5C0"/><stop offset=".85" stop-color="#949AA4"/><stop offset=".92" stop-color="#767A82"/><stop offset=".98" stop-color="#55575C"/><stop offset="1" stop-color="#48494D"/></linearGradient><linearGradient id="d" x1="39.759" x2="47.987" y1="37.758" y2="37.758" gradientUnits="userSpaceOnUse"><stop stop-color="#E4F0FF"/><stop offset=".35" stop-color="#E2EEFC"/><stop offset=".5" stop-color="#DBE7F5"/><stop offset=".61" stop-color="#D1DBE9"/><stop offset=".7" stop-color="#C1CBD7"/><stop offset=".78" stop-color="#ADB5C0"/><stop offset=".85" stop-color="#949AA4"/><stop offset=".92" stop-color="#767A82"/><stop offset=".98" stop-color="#55575C"/><stop offset="1" stop-color="#48494D"/></linearGradient><clipPath id="b"><path fill="#fff" d="M26 26h48v48H26z"/></clipPath></defs></svg>
